X:1
T:Title
%%score 1 { 2 | 3 }
L:1/8
Q:1/4=100
M:4/4
K:Ab
V:1 treble nm="Grand Piano, Soprano"
V:2 bass nm="Choir Pad, Bass"
V:3 bass 
V:1
 [A,C]>[CE] [CA]2- [CA][CG] [CB]2 | [EA]2 [EG]2 [DF]4 | [EG]>[DF] [CE]2- [CE][CE] [DF]2 | %3
w: By~Clarence~Board~Strouse * * * * *|||
 [DE]2 [CE]6 | [A,C]>[CE] [CA]2- [CA][CG] [CB]2 | [EA]2 [EG]2 [DF]4 | %6
w: |||
 [EG]>[DF] [CE]2- [CE][EA] [EA]2 | [EG]2 [EA]6 | (3[CE][DF][DG] [CA]2- [CA][DB] [Ec]2 | %9
w: |||
 (3[EA][EA][EG] [DF]2- [DF][EG] [DF]2 | (3[DE][DF][DG] [CA]>[CA] [CA]>[CA] [DB]2 | [DA]2 [Cc]6 | %12
w: |||
 (3[CE][DF][DG] [CA]2- [CA][DB] [Ec]2 | (3[EA][EA][EG] [DF]2- [DF][EG] [DF]2 | %14
w: ||
 (3[EG][EG][DF] [CE]>[EA] [EA]>[EB] [EA]2 | [EG]2 [EA]6- | [EA]2 z2 z4 |] %17
w: |||
V:2
 E,>A, A,2- A,A, A,2 | A,2 A,2 A,4 | A,>A, A,2- A,A, G,2 | G,2 A,6 | E,>A, A,2- A,A, A,2 | %5
 A,2 A,2 A,4 | A,>A, A,2- A,[K:treble]C C2 | D2 C6 | (3A,[K:bass]A,E, E,4 A,2 | (3A,A,A, A,4 A,2 | %10
 (3G,G,G, A,>A, A,>E, F,2 | =E,2 _E,6 | (3A,A,E, E,4 A,2 | (3A,A,A, A,4 A,2 | %14
 (3A,A,A, A,>[K:treble]C C>D C2 | B,D C6- | C2 z2 z4 |] %17
V:3
 A,,>A,, A,,2- A,,A,, A,,2 | C,2 D,2 D,4 | D,>D, E,2- E,E, E,2 | E,2 A,,6 | %4
 A,,>A,, A,,2- A,,A,, A,,2 | C,2 D,2 D,4 | D,>D, E,2- E,E, E,2 | E,2 A,,6 | (3A,,D,B,, A,,4 A,,2 | %9
 (3C,C,C, D,4 D,2 | (3E,E,E, A,,>A,, A,,>A,, A,,2 | A,,2 A,,6 | (3A,,D,B,, A,,4 A,,2 | %13
 (3C,C,C, D,4 D,2 | (3D,D,D, E,>E, E,>E, E,2 | E,2 [A,,A,]6- | [A,,A,]2 z2 z4 |] %17

